svg/cloud-download.svg

<?xml version="1.0" encoding="UTF-8" standalone="no"?>
<svg
   xmlns:dc="http://purl.org/dc/elements/1.1/"
   xmlns:cc="http://creativecommons.org/ns#"
   xmlns:rdf="http://www.w3.org/1999/02/22-rdf-syntax-ns#"
   xmlns:svg="http://www.w3.org/2000/svg"
   xmlns="http://www.w3.org/2000/svg"
   xmlns:sodipodi="http://sodipodi.sourceforge.net/DTD/sodipodi-0.dtd"
   xmlns:inkscape="http://www.inkscape.org/namespaces/inkscape"
   class="ionicon"
   viewBox="0 0 512 512"
   version="1.1"
   id="svg6"
   sodipodi:docname="cloud-download.svg"
   inkscape:version="1.0.2 (e86c8708, 2021-01-15)">
  <metadata
     id="metadata12">
    <rdf:RDF>
      <cc:Work
         rdf:about="">
        <dc:format>image/svg+xml</dc:format>
        <dc:type
           rdf:resource="http://purl.org/dc/dcmitype/StillImage" />
      </cc:Work>
    </rdf:RDF>
  </metadata>
  <defs
     id="defs10" />
  <sodipodi:namedview
     pagecolor="#ffffff"
     bordercolor="#666666"
     borderopacity="1"
     objecttolerance="10"
     gridtolerance="10"
     guidetolerance="10"
     inkscape:pageopacity="0"
     inkscape:pageshadow="2"
     inkscape:window-width="689"
     inkscape:window-height="480"
     id="namedview8"
     showgrid="false"
     inkscape:zoom="1.3027344"
     inkscape:cx="256"
     inkscape:cy="256"
     inkscape:window-x="44"
     inkscape:window-y="25"
     inkscape:window-maximized="0"
     inkscape:current-layer="svg6" />
  <title
     id="title2">Cloud Download</title>
  <path
     style="color:#000000;font-style:normal;font-variant:normal;font-weight:normal;font-stretch:normal;font-size:medium;line-height:normal;font-family:sans-serif;font-variant-ligatures:normal;font-variant-position:normal;font-variant-caps:normal;font-variant-numeric:normal;font-variant-alternates:normal;font-variant-east-asian:normal;font-feature-settings:normal;font-variation-settings:normal;text-indent:0;text-align:start;text-decoration:none;text-decoration-line:none;text-decoration-style:solid;text-decoration-color:#000000;letter-spacing:normal;word-spacing:normal;text-transform:none;writing-mode:lr-tb;direction:ltr;text-orientation:mixed;dominant-baseline:auto;baseline-shift:baseline;text-anchor:start;white-space:normal;shape-padding:0;shape-margin:0;inline-size:0;clip-rule:nonzero;display:inline;overflow:visible;visibility:visible;isolation:auto;mix-blend-mode:normal;color-interpolation:sRGB;color-interpolation-filters:linearRGB;solid-color:#000000;solid-opacity:1;vector-effect:none;fill:#000000;fill-opacity:1;fill-rule:nonzero;stroke-width:1;stroke-linecap:butt;stroke-linejoin:miter;stroke-miterlimit:4;stroke-dasharray:none;stroke-dashoffset:0;stroke-opacity:1;color-rendering:auto;image-rendering:auto;shape-rendering:auto;text-rendering:auto;enable-background:accumulate;stop-color:#000000;stop-opacity:1;stroke:none;opacity:1"
     d="M 472.7,189.5 C 459.44,181.07 442.87,174.94 424.62,171.57 418.33383,170.36623 413.36987,165.53208 412,159.28 404.14,124.77 387.4,95.15 362.85,72.7 334.15,46.45 296.21,32 256,32 c -35.35,0 -68,11.08 -94.37,32 -17.80996,14.199655 -32.15541,32.26569 -41.95,52.83 -2.21085,4.70516 -6.56371,8.04806 -11.68,8.97 -27.13,4.9 -50.53,14.68 -68.41,28.7 C 13.7,174.83 0,203.56 0,237.6 0,305 55.93,352 136,352 H 240 V 224.45 c 0,-8.61 6.62,-16 15.23,-16.43 9.12773,-0.43978 16.76917,6.84168 16.77,15.98 v 128 h 124 c 72.64,0 116,-34.24 116,-91.6 0,-30.05 -13.59,-54.57 -39.3,-70.9 z M 240,425.42 203.3,388.78 c -6.28029,-6.08638 -16.28388,-6.00241 -22.46113,0.18851 -6.17725,6.19092 -6.23911,16.19466 -0.13887,22.46149 l 64,63.89 c 6.24524,6.23013 16.35476,6.23013 22.6,0 l 64,-63.89 c 6.10024,-6.26683 6.03838,-16.27057 -0.13887,-22.46149 C 324.98388,382.77759 314.98029,382.69362 308.7,388.78 L 272,425.42 V 352 h -32 z"
     id="path4" />
</svg>

<svg xmlns="http://www.w3.org/2000/svg" width="512" height="512" viewBox="0 0 512 512"><title>ionicons-v5-f</title><path d="M472.7,189.5c-13.26-8.43-29.83-14.56-48.08-17.93A16,16,0,0,1,412,159.28c-7.86-34.51-24.6-64.13-49.15-86.58C334.15,46.45,296.21,32,256,32c-35.35,0-68,11.08-94.37,32a150.13,150.13,0,0,0-41.95,52.83A16.05,16.05,0,0,1,108,125.8c-27.13,4.9-50.53,14.68-68.41,28.7C13.7,174.83,0,203.56,0,237.6,0,305,55.93,352,136,352H240V224.45c0-8.61,6.62-16,15.23-16.43A16,16,0,0,1,272,224V352H396c72.64,0,116-34.24,116-91.6C512,230.35,498.41,205.83,472.7,189.5Z"/><path d="M240,425.42l-36.7-36.64a16,16,0,0,0-22.6,22.65l64,63.89a16,16,0,0,0,22.6,0l64-63.89a16,16,0,0,0-22.6-22.65L272,425.42V352H240Z"/></svg>
